X: 29
I: linebreak $
T: Villanella
P: AABB x 6 (fast) or AABB x 3 (slow)
K: G major
M: 3/4
L: 1/8
P: A
"G"d4c2 | "G"B3AB2 | "Am"A3Bc2 | "G"B4B2 | "D"A6 | "C"G6 | 
"D"A6 | "G"B4B2 :: 
P: B
"G"B4B2 | "F"A4A2 | "F"A4"C"G2 | "F"A4A2 | 
"F"A3Bc2 | "G"B3AG2 | "D"A3GA2 | "G"B4B2 :| 

